X: 65
T:Ladies' Triumph
% Nottingham Music Database
S:Kevin Briggs, via EF
M:4/4
L:1/4
K:G
P:A
G/2E/2|"G"DG BA/2G/2|"C"AE EG|"G"DG BA/2G/2|"G"dB "G7"B3/2d/2|
"C"eg "G"dB|"Am"c/2B/2A/2G/2 "D7"AB|"G"DG "D7"B/2A/2G/2A/2|"G"BG G:|
P:B
B/2c/2|"G"dB gB|"C"c/2B/2A/2G/2 "D7"AB/2c/2|"G"dB gd|"C"eg -"G"g3/2d/2|
"C"eg "G"dB|"Am"c/2B/2A/2G/2 "D7"AB|"G"DG "D7"B/2A/2G/2A/2|"G"BG G:|<end>
<start>
